!!!CDT:
!!!PTL: Il secondo libro de madrigali a cinque voci
!!!PPP: Venice
!!!PPR: Heirs of G. Scotto
!!!PDT: 1599
!!!PUB-format:
!!!RISM: 1599-16
!!!rime: 333
!!!AGN: Madrigal
!!!SCT: Trm0333k
!!!SCA: Trm0333k
!!!original-voices: 5
!!!extant-voices: 1
!!!complete: N
!!!final: G?
!!!COM: Nanino, Giovanni Bernardino
!!!OTL: Gelo ha Madonna il seno
**kern	**text
*part1	*part1
*staff1	*staff1
*I"Tenore	*
*I'T	*
*oclefC3	*
*clefGv2	*
*k[]	*
*omet(C)	*
*M4/2	*
=1	=1
0r	.
=2	=2
0r	.
=3	=3
2d	Ge-
4d	-lo ha
4G	Ma-
4A	-don-
4B	-n'il
2c	se-
=4	=4
4B	-no e
2B	fiam-
4c	-m'il
2d	vol-
2G	-to;
=5	=5
0r	.
=6	=6
2g	Io
2a	son
1g	ghiac-
=7	=7
2c	-cio
2d	di
2.e	fuo-
4d	.
=8	=8
2c#X	.
4d	-re
4G	E'l
4d	fo-
4d	-co ho
8eL	den-
8d	.
8e	.
8fJ	.
=9	=9
2g	.
2f	-tro ac-
1a	-col-
=10	=10
2a	-to,
4r	.
4A	E'l
4c#X	fo-
4c#i	-co ho
[2d	den-
=11	=11
2d]	.
2G	-tro ac-
4.B	-col-
16AL	.
16GJ	.
2A	.
=12	=12
2B	-to.
1c	Que-
2d	-sto a-
=13	=13
2.G	-vien
4B	per-
2c	-ch'A-
2d	-mo-
=14	=14
2c	-re
2r	.
4r	.
4g	Ne
4.g	la
8f	sua
=15	=15
4e	fron-
4c	-te al-
2d	-ber-
4c	-ga,
4g	Ne
4.g	la
8f	sua
=16	=16
4e	fron-
4c	-te al-
4d	-ber-
4B	-ga e
4d	nel
4d	mio
2c#X	pet-
=17	=17
2d	-to,
4r	.
4d	Né
4d	can-
2G	-gia
[4c	mai
=18	=18
4c]	.
2d	ri-
8gL	-cet-
8fJ	.
8eL	.
8d	.
8c	.
8BJ	.
2c	.
=19	=19
2d	-to
4c	Sì
4c	ch'io
4.d	l'hab-
8c	-bia
4B	ne
4c	gli oc-
=20	=20
4A	-chi el-
8aL	-la
8gJ	.
8fL	.
8eJ	.
2d	.
4g	nel
2a	co-
=21	=21
2g	-re,
2r	.
4r	.
4g	Sì
4g	ch'io
[4a	l'hab-
=22	=22
8a]	.
8g	-bia
4f#X	ne
2g	gli oc-
2G	-chi,
2r	.
=23	=23
0r	.
=24	=24
2r	.
2B	Sì
4B	ch'io
4.c	l'hab-
8B	-bia
4A	ne
=25	=25
2.B	gli oc-
4G	-chi
2r	.
2B	el-
=26	=26
2c	-la
2c	nel
4B	co-
8AL	.
8GJ	.
2A	.
=27	=27
0Gl	-re.
==	==
*-	*-
!!!RDF**kern: i = editorial accidental
!!!RDF**kern: l = terminal long
!!!ENC: Emiliano Ricciardi
!!!END: 2018
!!!EED: Ricciardi, Emiliano
!!!EEV: 2018/09/18
!!!YEC: Copyright 2018 Emiliano Ricciardi, All Rights Reserved
!!!ONB: Translated from MusicXML on 2018/09/18 and edited by Craig Stuart Sapp
!!@@BEGIN:	VERSEDATA
!!@SOLERTI:	333
!!@CATALOGNUM:	Trm0333
!!@LAST_MODIFIED: 2020/07/12
!!@TITLE:		Gelo ha Madonna il seno, e fiamma il volto
!!@GENRE:		madrigale
!!@MANUSRC:	A<sub>3</sub>, Amz, C, E<sub>1</sub>, E<sub>7</sub>, Flc<sub>2</sub>, I<sub>4</sub>, I<sub>5</sub>, M<sub>7</sub>, P<sub>4</sub>, V<sub>2</sub>, V<sub>8</sub>, V<sub>13/E1</sub>, W
!!@PRINTSRC:	8, 9, 11, 12, 13, 15, 20, 24, 29, 33, 67, 93, 141, 166, 169
!!@@BEGIN:	VERSES
!!@ABOUTIT:	Rende la ragione perché la sua donna sia amata ed egli amante.
!!@ABOUTEN:	He explains the reason why his lady is the beloved and he is the lover.
!!@EDITOR:	Solerti, Angelo
!!@EDITION_TITLE: Le Rime di Torquato Tasso
!!@EDITION_LOC:	Bologna
!!@EDITION_PUB:	Romagnoli-Dall’Acqua
!!@EDITION_DATE:  1898-1902
!!@EDITION_VOL:	2
!!@EDITION_PAGE:  381
!!@TRANSLATOR:	Emiliano Ricciardi and Amyrose McCue Gill
!!@VERSE:
!!	Gelo ha Madonna il seno, e fiamma il volto;
!!	Io son ghiaccio di fuore
!!	E 'l foco ho dentro accolto.
!!	Questo avvien, perch'Amore
!!	Ne la sua fronte alberga e nel mio petto,
!!	Né mai cangia ricetto
!!	Sì ch'io l'abbia ne gli occhi, ella nel core.
!!@TVERSE:
!!	Ice has my lady [in] her breast, and flame [in] her face;
!!	I am ice on the outside
!!	And fire I have embraced within.
!!	This happens because Love
!!	In her forehead dwells and in my heart,
!!	Nor ever does it change refuge
!!	So that I have it in my eyes, she in her heart.
!!@@END:		VERSES
!!@OTHER_CRIT_ED:   Torquato Tasso, <i>Rime d’amore (secondo il codice
!!		Chigiano L VIII 302)</i>, eds. Franco Gavazzeni and
!!		Vercingetorige Martignone, vol. 4 of <i>Edizione
!!		Nazionale delle opere di Torquato Tasso</i>
!!		(Alessandria: Edizioni Dell’Orso, 2004), 170.
!!@ATTRIBUTION_ABOUT:	Secure
!!		<br>
!!		Among other authoritative sources (see Literary
!!		Sources), this poem appears in the autograph Chigiano
!!		L.VIII.302 (Biblioteca Vaticana, Rome), compiled
!!		around 1584&ndash;85.
!!@DATING:	In or before 1578
!!	<br>
!!	The earliest datable appearance of this poem is in a musical setting by the Veronese composer Paolo Bellasio, published in 1578 (see Musical Settings).
!!@DEDICATEE:
!!@COMMENTARY:
!!@@END:		VERSEDATA
!!@@BEGIN:	SETTING
!!@CATALOGNUM:	Trm0333k
!!@RIMETITLE:	Gelo ha Madonna il seno
!!@SOLERTI:	333
!!@COMPOSER:	Nanino, Giovanni Bernardino
!!@PRINCEPSTITLE:	Il secondo libro de madrigali a cinque voci
!!@PRINCEPSLOC:	Venetia
!!@NORMLOC:	Venice
!!@NORMPUB:	Heirs of G. Scotto
!!@NORMPUBSHORT:	Scotto
!!@PRINCEPSPUB:	Heredi di Scotto
!!@PRINCEPSYEAR:	1599
!!@PRINCEPSRISM:	1599-16
!!@REPRINTS:	
!!@OVOICES:	5
!!@EXTANTVOICES:	1
!!@PARTBOOKS:	
!!@EXTPARTBOOKS:	
!!@OCLEFS:	C3
!!@OMENSURATION:	C
!!@OKEYSIG:	-
!!@FINAL:	G?
!!@TIMPEDITOR:	Ricciardi, Emiliano
!!@NOTE:		
!!@@END:		SETTING
